svg/business/calendar_add_line.svg

<?xml version="1.0" encoding="UTF-8"?>
<svg width="24px" height="24px" viewBox="0 0 24 24" version="1.1" xmlns="http://www.w3.org/2000/svg" xmlns:xlink="http://www.w3.org/1999/xlink">
    <title>calendar_add_line</title>
    <g id="Icon" stroke="none" stroke-width="1" fill="none" fill-rule="evenodd">
        <g id="Business" transform="translate(-96.000000, -480.000000)">
            <g id="calendar_add_line" transform="translate(96.000000, 480.000000)">
                <path d="M24,0 L24,24 L0,24 L0,0 L24,0 Z M12.5935,23.2578 L12.5819,23.2595 L12.5109,23.295 L12.4919,23.2987 L12.4767,23.295 L12.4057,23.2595 C12.3958,23.2564 12.387,23.259 12.3821,23.2649 L12.378,23.2758 L12.3609,23.7031 L12.3659,23.7235 L12.3769,23.7357 L12.4805,23.8097 L12.4953,23.8136 L12.5071,23.8097 L12.6107,23.7357 L12.6233,23.7197 L12.6267,23.7031 L12.6096,23.2758 C12.6076,23.2657 12.601,23.2593 12.5935,23.2578 Z M12.8584,23.1453 L12.8445,23.1473 L12.6598,23.2397 L12.6499,23.2499 L12.6472,23.2611 L12.6651,23.6906 L12.6699,23.7034 L12.6784,23.7105 L12.8793,23.8032 C12.8914,23.8069 12.9022,23.803 12.9078,23.7952 L12.9118,23.7812 L12.8777,23.1665 C12.8753,23.1546 12.8674,23.147 12.8584,23.1453 Z M12.143,23.1473 C12.1332,23.1424 12.1222,23.1453 12.1156,23.1526 L12.1099,23.1665 L12.0758,23.7812 C12.0751,23.7927 12.0828,23.8019 12.0926,23.8046 L12.1083,23.8032 L12.3092,23.7105 L12.3186,23.7024 L12.3225,23.6906 L12.3404,23.2611 L12.3372,23.2485 L12.3278,23.2397 L12.143,23.1473 Z" id="MingCute" fill-rule="nonzero"></path>
                <path d="M18,14 C18.5523,14 19,14.4477 19,15 L19,17 L21,17 C21.5523,17 22,17.4477 22,18 C22,18.5523 21.5523,19 21,19 L19,19 L19,21 C19,21.5523 18.5523,22 18,22 C17.4477,22 17,21.5523 17,21 L17,19 L15,19 C14.4477,19 14,18.5523 14,18 C14,17.4477 14.4477,17 15,17 L17,17 L17,15 C17,14.4477 17.4477,14 18,14 Z M16,3 C16.5523,3 17,3.44772 17,4 L17,5 L19,5 C20.1046,5 21,5.89543 21,7 L21,11 C21,11.5523 20.5523,12 20,12 L5,12 L5,19 L11,19 C11.5523,19 12,19.4477 12,20 C12,20.5523 11.5523,21 11,21 L5,21 C3.89543,21 3,20.1046 3,19 L3,7 C3,5.89543 3.89543,5 5,5 L7,5 L7,4 C7,3.44772 7.44772,3 8,3 C8.55228,3 9,3.44772 9,4 L9,5 L15,5 L15,4 C15,3.44772 15.4477,3 16,3 Z M19,7 L5,7 L5,10 L19,10 L19,7 Z" id="形状" fill="#09244B"></path>
            </g>
        </g>
    </g>
</svg>

<svg xmlns="http://www.w3.org/2000/svg" width="24" height="24"><g fill="none" fill-rule="evenodd"><path d="M24 0v24H0V0zM12.594 23.258l-.012.002-.071.035-.02.004-.014-.004-.071-.036c-.01-.003-.019 0-.024.006l-.004.01-.017.428.005.02.01.013.104.074.015.004.012-.004.104-.074.012-.016.004-.017-.017-.427c-.002-.01-.009-.017-.016-.018m.264-.113-.014.002-.184.093-.01.01-.003.011.018.43.005.012.008.008.201.092c.012.004.023 0 .029-.008l.004-.014-.034-.614c-.003-.012-.01-.02-.02-.022m-.715.002a.023.023 0 0 0-.027.006l-.006.014-.034.614c0 .012.007.02.017.024l.015-.002.201-.093.01-.008.003-.011.018-.43-.003-.012-.01-.01z"/><path fill="#09244B" d="M18 14a1 1 0 0 1 1 1v2h2a1 1 0 1 1 0 2h-2v2a1 1 0 1 1-2 0v-2h-2a1 1 0 1 1 0-2h2v-2a1 1 0 0 1 1-1M16 3a1 1 0 0 1 1 1v1h2a2 2 0 0 1 2 2v4a1 1 0 0 1-1 1H5v7h6a1 1 0 1 1 0 2H5a2 2 0 0 1-2-2V7a2 2 0 0 1 2-2h2V4a1 1 0 0 1 2 0v1h6V4a1 1 0 0 1 1-1m3 4H5v3h14z"/></g></svg>
